!!!COM: Mozart, Wolfgang Amadeus
!!!CDT: 1756///-1791///
!!!OTP: Viennese Sonatina No. 1 in C-major
!!!OTL: Sonatina in C-major
!!!OMV: No. 2
!!!GNM: No. 1
!!!OMD: Menuet and Trio
!!!ENC: Craig Stuart Sapp
!!!AIN: piano
!!!EEV: 19 Feb 2001
!!!YEC: Copyright 2001 by Craig Stuart Sapp
!!!YEN: United States of America
**kern	**kern
*M3/4	*M3/4
*MM160	*MM160
*>[A,A,B,B,C,C,D,D,A,B]	*>[A,A,B,B,C,C,D,D,A,B]
*>A	*>A
4r	4g'
=	=1
4c' 4e'	4gg
4r	4ee
4r	4cc'
=2	=2
4r	2g
4c' 4e'	.
4c' 4e'	4ee'
=3	=3
4B' 4d'	4gg
4r	4ff
4r	4dd'
=4	=4
4r	2g
4B' 4d'	.
4G' 4d'	4ff'
=5	=5
4c'	4ee
4r	4gg
4C' 4g'	4ee'
=6	=6
4F' 4A'	4dd
4r	4ff
4F 4f'	4dd'
=7	=7
.	8ccq
4G' 4f'	4b
4G' 4f'	8b
.	8a
4G' 4f'	4b
=8	=8
4c' 4e'	4cc'
4C'	4r
=:|!|:	=:|!|:
*>B	*>B
4r	4dd'
=9	=9
4r	4dd'
4r	4ee'
4c'	4ff#'
=10	=10
4B'	4gg'
4A'	4aa'
4G'	4bb'
=11	=11
4D' 4F#'	2.ccc
4E' 4G'	.
4F'# 4A'	.
=12	=12
4G' 4B'	4bb
4A' 4c'	4r
4B' 4d'	4dd'
=13	=13
2.c	4f#' 4dd'
.	4g' 4ee'
.	4a' 4ff#'
=14	=14
4B'	4b' 4gg'
4A'	4cc' 4aa'
4G'	4dd' 4bb'
=15	=15
4c'	2ee 2ccc
4A'	.
*	*^
4d'	4cc	8aa
.	.	8ff#
*	*v	*v
=16	=16
4G'	4b' 4gg'
4GG'	4r
4r	4b' 4dd'
=17	=17
*	*^
4r	2.cc	2dd
4FF#'	.	.
4FF#'	.	8ffn
.	.	8ee-
=18	=18	=18
4GG'	4b	4dd
4G'	4r	4r
4r	4dd'	4gg'
=19	=19	=19
4r	2cc	2gg
4AA-'	.	.
4AA-'	8dd	4ff#
.	8cc	.
=20	=20	=20
4GG'	4b	4gg
*	*v	*v
4G'	4r
4r	4g 4b
=21	=21
4r	4a' 4cc'
4GG' 4G'	4r
4r	4a# 4cc#
=22	=22
4r	4b' 4dd'
4GG' 4G'	4r
4r	4b 4dd#
=23	=23
4r	4cc' 4ee'
4GG' 4G'	4r
4r	4cc# 4ee
=24	=24
4r	4dd' 4ff'
4GG' 4G'	4r
4r	4dd# 4ff#
=25	=25
8C	4ee 4gg
8c	.
8G	4ee'
8c	.
8E	4cc'
8c	.
=26	=26
8C	2g
8c	.
8E	.
8c	.
8G	4ee'
8c	.
=27	=27
8GG	4gg
8G	.
8D	4ff'
8G	.
8BB	4dd'
8G	.
=28	=28
8GG	2g
8G	.
8BB	.
8G	.
8D	4ff'
8G	.
=29	=29
8C	4ee
8G	.
8E	4gg'
8G	.
8C	4ee'
8E	.
=30	=30
8FF	4dd
8F	.
8AA	4ff'
8F	.
8FF	4dd'
8F	.
=31	=31
.	8ccq
8GG	4b
8G	.
8D	8b
8G	8a
8GG	4b'
8G	.
=32	=32
4C	4cc'
4r	4r
=:|!:	=:|!:
*>C	*>C
4r	4a' 4cc'
=33	=33
4FF	2.a 2.cc
4F'	.
4F'	.
=34	=34
4FF	2.b- 2.dd
4F'	.
4F'	.
=35	=35
4FF	4dd 4ff
4F'	4cc 4ee
4F'	4b- 4dd
=36	=36
4FF	4a 4cc
4F'	4r
4r	8ff
.	8gg
=37	=37
4r	8aa
.	8gg
4r	8ff
.	8ee
4F#' 4A'	8dd
.	8cc
=38	=38
4G	2b-
4GG'	.
4r	8ee
.	8ff
=39	=39
4r	8gg
.	8ff
4r	8ee
.	8dd
4E' 4G'	8cc
.	8b-
=40	=40
4F	2a
4FF'	.
8F	4r
8G	.
=41	=41
8A	4r
8G	.
8F	4r
8E	.
8D	8bbn
8C	8ccc
=42	=42
4BBn'	8ddd
.	8ccc
4D'	8bbn
.	8aa
4G'	8gg
.	8ff
=43	=43
4C'	8ee
.	8ff
4r	8gg
.	8aa
4E'	8bbn
.	8ccc
=44	=44
4F'	8bbn
.	8aa
4r	8gg
.	8ff
4F'	8ee
.	8dd
=45	=45
8G	2cc
8e	.
8G	.
8e	.
8G	8ee
8f	8dd
=46	=46
4c' 4e'	4cc'
4C'	4r
=:|!|:	=:|!|:
*>D	*>D
4r	4e 4g
=47	=47
8C	2.e 2.g
8c	.
8C	.
8c	.
8C	.
8c	.
=48	=48
8C	2.f 2.a-
8c	.
8C	.
8c	.
8C	.
8c	.
=49	=49
8C	4a- 4cc
8c	.
8C	4g 4b-
8c	.
8C	4f 4a-
8c	.
=50	=50
4C'	4e 4g
4c'	4r
4r	8ee
.	8ff
=51	=51
4r	8aan
.	8gg
4r	8ff
.	8ee
4C 4E	8dd
.	8cc
=52	=52
4D' 4F'	4bn
4D' 4F'	4r
4r	8dd
.	8ee
=53	=53
4r	8gg
.	8ff
4r	8ee
.	8dd
4D 4F	8cc
.	8bn
=54	=54
8C 8E	4cc
8G	.
8C 8E	4r
8G	.
8C 8F	8dd
8G	8ee
=55	=55
8C 8E	4cc
8G	.
8C 8E	4r
8G	.
8C 8F	8dd
8G	8ee
=56	=56
4C 4E	4cc
4r	4cc'
8GG	4cc'
8AA	.
=57	=57
8C	4cc'
8BB-	.
8AA	4cc'
8GG	.
*	*^
8FF	4b-'	4cc'
8EE	.	.
*	*v	*v
=58	=58
8FF	2.a 2.cc
8F	.
8FF	.
8F	.
8FF	.
8F	.
=59	=59
8FF	2.b- 2.dd
8F	.
8FF	.
8F	.
8FF	.
8F	.
=60	=60
8FF	4dd 4ff
8F	.
8FF	4cc 4ee
8F	.
8FF	4b- 4dd
8F	.
=61	=61
4FF'	4a 4cc
4F'	4r
4r	8ff
.	8gg
=62	=62
4r	8aa
.	8gg
4r	8ff
.	8ee
8B-	8dd
8c	8cc
=63	=63
8d	4b-
8c	.
8B-	4dd
8A	.
8G	4gg
8F	.
=64	=64
8E	2bb-
8F	.
8E	.
8D	.
8C	4ee
8BB-	.
=65	=65
8AA	2ff 2ccc
8A	.
8AA	.
8A	.
8AA	4ee- 4ccc#
8A	.
=66	=66
8BB-	4dd' 4ddd'
8B-	.
8BB-	4dd' 4bb-'
8B-	.
8BB-	4b- 4gg'
8B-	.
=67	=67
8C	2a 2ff
8c	.
8C	.
8c	.
8C	8b- 8aa
8c	8gg
=68	=68
4F'	4a 4ff
4f'	4r
4r	8ff
.	8gg
=69	=69
*^	*
4F	2.f	8aa
.	.	8gg
4G	.	8ff
.	.	8ee
4A	.	8dd
.	.	8cc#
*v	*v	*
=70	=70
4B- 4f	4dd
4r	4r
4r	8gg
.	8aa
=71	=71
*^	*
2.C	4E	8ccc
.	.	8bb-
.	4G	8aa
.	.	8gg
.	4B-	8ff
.	.	8ee
=72	=72	=72
4F	4A	4ff
*v	*v	*
4r	4r
=:|!	=:|!
*-	*-
